X: 3553
T: Big Move, The
R: jig
M: 6/8
K: Dmajor
Ade|:~f3 ede|fdB Ade|~f3 edB|BAF Ade|
~f3 ede|fdB BAF|AFE EDA|1 D3 Ade:|2 D3- D3||
|:EFE EDE|EFE EDE|EFE EDE|EFD DED:|
EFE EDE|GGF FGF|EFE EDE|EFD DED|
FFD GGD|FFD GGD|EFE EDE|EFD Ade||
|:~f3 ede|fdB Ade|~f3 edB|BAF Ade|
~f3 ede|fdB BAF|AFE EDA|1 D3 Ade:|2 D3- D3||
|:EFE EDE|EFE EDE|EFE EDE|EFD DED:|
EFE EDE|GGF FGF|EFE EDE|EFD DED|
FFD GGD|FFD GGD|EFE EDE|EFD D3||
|:~a3 fef|aba ~f3|aba f2e|edc def|
[1 ~a3 fef|aba ~f3|fee edd|dBB def:|
[2 ~a3 fef|aba f2^e|edB BAF|FEA D3||
|:EFE EDE|EFE EDE|EFE EDE|EFD DED:|
EFE EDE|GGF FGF|EFE EDE|EFD DED|
FFD GGD|FFD GGD|EFE EDE|EFD D3||

